X: 2
T: La Belle-Mère Enragée
M: C|
L: 1/8
R: reel
K:G 
"<("">)"D|:"Em"E2 BE dEBE|"Am"cBcd cBAG|"D"FGAF DFAF|"G"GABG "D"FGAF|
"Em"E2 BE dEBE|"Am"cBcd "F"cBAG|"D"FGAF DFAF|1d2 F2 "G"G3 F:|\
	[2 d2 F2 "G"G2 (3DEF ||
|:"G"G2 BG "D"FGAF|"G"GABc dBGE| "F"=F2 cF dFcF|D=FcF "D"dDE^F|
"G"G2 BG "D"FGAF|"G"GABc dedB| "D"cdcA "G"BcBG|1 "D"A2 F2 "G"G2 (3DEF:|\
	[2 "D"A2 F2 "G"G3 F|]
%%begintext ragged
The first note is in parentheses because it is only to be played the first time through.


%%endtext

